X:1
T: A Visit to Ireland
C:
R:Jig
Q:180
K:G
M:6/8
L:1/16
B2|:d2e2d2 d2B2G2|B2d2d2 d2e2f2|g2f2e2 d2c2B2|c2A2A2 A4Bc|
d2e2d2 d2B2G2|B2d2d2 d2e2f2|g2f2g2 A2B2c2|1B2G2G2 G4B2:|2B2G2G2 G4d2|
|:g2f2g2 a2g2a2|b2a2g2 f2e2d2|g2f2e2 d2c2B2|c2A2A2 A4d2|
g2f2g2 a2g2a2|b2a2g2 f2e2d2|g2f2g2 A2B2c2|1B2G2G2 G4d2:|2B2G2G2 G4||
